Newaita/actions/16/edit-select-all-layers.svg

<?xml version="1.0" encoding="UTF-8"?>
<svg xmlns="http://www.w3.org/2000/svg" xmlns:xlink="http://www.w3.org/1999/xlink" width="16pt" height="16pt" viewBox="0 0 16 16" version="1.1">
<g id="surface1">
<path style=" stroke:none;fill-rule:nonzero;fill:rgb(25.882354%,25.882354%,25.882354%);fill-opacity:1;" d="M 2.644531 4.753906 L 12.238281 4.753906 L 13.230469 7.402344 L 3.636719 7.402344 Z M 2.644531 4.753906 "/>
<path style=" stroke:none;fill-rule:nonzero;fill:rgb(25.882354%,25.882354%,25.882354%);fill-opacity:1;" d="M 2.644531 9.054688 L 3.636719 11.703125 L 13.230469 11.703125 L 12.859375 10.710938 L 3.636719 10.710938 L 3.019531 9.054688 Z M 2.644531 9.054688 "/>
<path style=" stroke:none;fill-rule:nonzero;fill:rgb(25.882354%,25.882354%,25.882354%);fill-opacity:1;" d="M 2.644531 7.070312 L 3.636719 9.71875 L 13.230469 9.71875 L 12.859375 8.726562 L 3.636719 8.726562 L 3.019531 7.070312 Z M 2.644531 7.070312 "/>
<path style=" stroke:none;fill-rule:nonzero;fill:rgb(47.058824%,56.470591%,61.176473%);fill-opacity:1;" d="M 1.652344 0.785156 C 1.105469 0.785156 0.660156 1.230469 0.660156 1.777344 L 0.660156 3.433594 L 1.652344 3.433594 L 1.652344 2.441406 C 1.652344 2.074219 1.949219 1.777344 2.316406 1.777344 L 3.308594 1.777344 L 3.308594 0.785156 Z M 12.570312 0.785156 L 12.570312 1.777344 L 13.5625 1.777344 C 13.925781 1.777344 14.222656 2.074219 14.222656 2.441406 L 14.222656 3.433594 L 15.214844 3.433594 L 15.214844 1.777344 C 15.214844 1.230469 14.773438 0.785156 14.222656 0.785156 Z M 0.660156 12.695312 L 0.660156 14.347656 C 0.660156 14.898438 1.105469 15.339844 1.652344 15.339844 L 3.308594 15.339844 L 3.308594 14.347656 L 2.316406 14.347656 C 1.949219 14.347656 1.652344 14.050781 1.652344 13.6875 L 1.652344 12.695312 Z M 14.222656 12.695312 L 14.222656 13.6875 C 14.222656 14.050781 13.925781 14.347656 13.5625 14.347656 L 12.570312 14.347656 L 12.570312 15.339844 L 14.222656 15.339844 C 14.773438 15.339844 15.214844 14.898438 15.214844 14.347656 L 15.214844 12.695312 Z M 14.222656 12.695312 "/>
</g>
</svg>

<svg xmlns="http://www.w3.org/2000/svg" width="16pt" height="16pt" viewBox="0 0 16 16"><path d="M2.645 4.754h9.593l.992 2.648H3.637zm0 0M2.645 9.055l.992 2.648h9.593l-.37-.992H3.636L3.02 9.055zm0 0" fill="#424242"/><path d="M2.645 7.07l.992 2.649h9.593l-.37-.992H3.636L3.02 7.07zm0 0" fill="#424242"/><path d="M1.652.785a.994.994 0 0 0-.992.992v1.657h.992V2.44c0-.367.297-.664.664-.664h.993V.785zm10.918 0v.992h.992c.364 0 .66.297.66.664v.993h.993V1.777a.991.991 0 0 0-.992-.992zM.66 12.695v1.653c0 .55.445.992.992.992H3.31v-.992h-.993a.663.663 0 0 1-.664-.66v-.993zm13.563 0v.992c0 .364-.297.66-.66.66h-.993v.993h1.653c.55 0 .992-.442.992-.992v-1.653zm0 0" fill="#78909c"/></svg>
